communes/617.svg

<?xml version="1.0" encoding="UTF-8" standalone="no"?>
<svg
   xmlns:dc="http://purl.org/dc/elements/1.1/"
   xmlns:cc="http://creativecommons.org/ns#"
   xmlns:rdf="http://www.w3.org/1999/02/22-rdf-syntax-ns#"
   xmlns:svg="http://www.w3.org/2000/svg"
   xmlns="http://www.w3.org/2000/svg"
   xmlns:xlink="http://www.w3.org/1999/xlink"
   xmlns:sodipodi="http://sodipodi.sourceforge.net/DTD/sodipodi-0.dtd"
   xmlns:inkscape="http://www.inkscape.org/namespaces/inkscape"
   height="763"
   width="603"
   version="1.0"
   id="svg20"
   sodipodi:version="0.32"
   inkscape:version="0.46"
   sodipodi:docname="Niderhünigen-coat of arms.svg"
   sodipodi:docbase="C:\Users\Camilo\Documents\Escudos de Suiza"
   inkscape:output_extension="org.inkscape.output.svg.inkscape">
  <metadata
     id="metadata31">
    <rdf:RDF>
      <cc:Work
         rdf:about="">
        <dc:format>image/svg+xml</dc:format>
        <dc:type
           rdf:resource="http://purl.org/dc/dcmitype/StillImage" />
        <dc:date>04-AUG-2009</dc:date>
        <dc:creator>
          <cc:Agent>
            <dc:title>Juan G (aliman5040)</dc:title>
          </cc:Agent>
        </dc:creator>
        <cc:license
           rdf:resource="http://creativecommons.org/licenses/GPL/2.0/" />
        <dc:coverage />
        <dc:description></dc:description>
        <dc:subject>
          <rdf:Bag />
        </dc:subject>
        <dc:language></dc:language>
        <dc:title>Wappen Gemeinde Niederhünigen</dc:title>
      </cc:Work>
      <cc:License
         rdf:about="http://creativecommons.org/licenses/GPL/2.0/">
        <cc:permits
           rdf:resource="http://web.resource.org/cc/Reproduction" />
        <cc:permits
           rdf:resource="http://web.resource.org/cc/Distribution" />
        <cc:requires
           rdf:resource="http://web.resource.org/cc/Notice" />
        <cc:permits
           rdf:resource="http://web.resource.org/cc/DerivativeWorks" />
        <cc:requires
           rdf:resource="http://web.resource.org/cc/ShareAlike" />
        <cc:requires
           rdf:resource="http://web.resource.org/cc/SourceCode" />
      </cc:License>
    </rdf:RDF>
  </metadata>
  <defs
     id="defs29">
    <inkscape:perspective
       sodipodi:type="inkscape:persp3d"
       inkscape:vp_x="0 : 381.5 : 1"
       inkscape:vp_y="0 : 1000 : 0"
       inkscape:vp_z="603 : 381.5 : 1"
       inkscape:persp3d-origin="301.5 : 254.33333 : 1"
       id="perspective5149" />
    <linearGradient
       id="linearGradient2893">
      <stop
         style="stop-color:#ffffff;stop-opacity:0.3137255;"
         offset="0"
         id="stop2895" />
      <stop
         id="stop2897"
         offset="0.19"
         style="stop-color:#ffffff;stop-opacity:0.25098041;" />
      <stop
         style="stop-color:#6b6b6b;stop-opacity:0.1254902;"
         offset="0.60000002"
         id="stop2901" />
      <stop
         style="stop-color:#000000;stop-opacity:0.1254902;"
         offset="1"
         id="stop2899" />
    </linearGradient>
    <radialGradient
       inkscape:collect="always"
       xlink:href="#linearGradient2893"
       id="radialGradient3236"
       gradientUnits="userSpaceOnUse"
       gradientTransform="matrix(1.215027,1.531577e-24,1.464684e-23,1.266667,-839.1924,-490.4894)"
       cx="858.04236"
       cy="579.93323"
       fx="858.04236"
       fy="579.93323"
       r="300" />
    <inkscape:perspective
       id="perspective5197"
       inkscape:persp3d-origin="372.04724 : 350.78739 : 1"
       inkscape:vp_z="744.09448 : 526.18109 : 1"
       inkscape:vp_y="0 : 1000 : 0"
       inkscape:vp_x="0 : 526.18109 : 1"
       sodipodi:type="inkscape:persp3d" />
    <inkscape:perspective
       id="perspective8046"
       inkscape:persp3d-origin="372.04724 : 350.78739 : 1"
       inkscape:vp_z="744.09448 : 526.18109 : 1"
       inkscape:vp_y="0 : 1000 : 0"
       inkscape:vp_x="0 : 526.18109 : 1"
       sodipodi:type="inkscape:persp3d" />
    <inkscape:perspective
       id="perspective9383"
       inkscape:persp3d-origin="372.04724 : 350.78739 : 1"
       inkscape:vp_z="744.09448 : 526.18109 : 1"
       inkscape:vp_y="0 : 1000 : 0"
       inkscape:vp_x="0 : 526.18109 : 1"
       sodipodi:type="inkscape:persp3d" />
  </defs>
  <sodipodi:namedview
     inkscape:window-height="750"
     inkscape:window-width="1280"
     inkscape:pageshadow="2"
     inkscape:pageopacity="0.0"
     guidetolerance="10.0"
     gridtolerance="10.0"
     objecttolerance="10.0"
     borderopacity="1.0"
     bordercolor="#666666"
     pagecolor="#ffffff"
     id="base"
     inkscape:zoom="0.70710678"
     inkscape:cx="311.70216"
     inkscape:cy="383.89532"
     inkscape:window-x="-8"
     inkscape:window-y="-8"
     inkscape:current-layer="layer2"
     showgrid="true"
     showguides="true">
    <inkscape:grid
       type="xygrid"
       id="grid5151" />
  </sodipodi:namedview>
  <g
     inkscape:groupmode="layer"
     id="layer1"
     inkscape:label="Fond écu"
     style="display:inline"
     sodipodi:insensitive="true">
    <path
       id="path1899"
       d="M 1.5,1.49998 L 1.5,460.3679 C 1.5,626.6785 135.81456,761.5 301.49999,761.5 C 467.18543,761.5 601.5,626.6785 601.5,460.3679 L 601.5,1.49998 L 1.5,1.49998 z"
       style="fill:#e20909;fill-opacity:1" />
    <rect
       style="fill:#ffffff;fill-opacity:1;fill-rule:evenodd;stroke:#000000;stroke-width:2.99388838;stroke-miterlimit:4;stroke-dasharray:none;stroke-opacity:1"
       id="rect9337"
       width="600.0061"
       height="252.00612"
       x="1.4969482"
       y="1.4969442" />
  </g>
  <g
     inkscape:groupmode="layer"
     id="layer2"
     inkscape:label="Meubles"
     style="display:inline"
     sodipodi:insensitive="true">
    <g
       id="g9451"
       transform="matrix(4.1677095,0,0,4.1677095,-2683.6142,-2389.1635)">
      <g
         id="g9429">
        <path
           style="fill:#ffffff;fill-opacity:1;fill-rule:evenodd;stroke:#000000;stroke-width:1.06831789;stroke-miterlimit:4;stroke-dasharray:none;stroke-opacity:1"
           d="M 763,727 C 768.34159,718.45346 777.67064,707.40723 763,691 C 752.29874,679.03202 724,667 741,659 L 739.93169,656.86336 L 741,659 C 744.20496,664.34159 749.65841,675.1189 758.20495,670.84562 L 771.02477,659.09413 C 773,653 759.35335,644.36143 753,643 C 739,640 719.39626,645.4738 720,666 C 720.3106,676.56007 726,682 731,689 C 741.90027,704.26038 733.95695,716.90576 731,721 L 718,739 L 763,727 z"
           id="path8072"
           sodipodi:nodetypes="cscccccsssscc" />
        <path
           style="fill:#fcef3c;fill-opacity:1;fill-rule:evenodd;stroke:#000000;stroke-width:1.06831789;stroke-miterlimit:4;stroke-dasharray:none;stroke-opacity:1"
           d="M 767.81981,654.82086 C 770.34294,660.89964 773.89297,666.35256 781.70795,670.84562 C 787.89357,674.40193 787.04954,679.39217 784.9129,682.59712 C 777.75494,679.4624 769.95645,674.09348 763.54654,666.57235 C 767.81981,672.98226 775.68523,678.51264 782.77626,683.66544 C 779.36702,687.1047 775.7847,686.07769 772.09309,682.59712 C 766.54427,677.36554 762.94983,674.20139 758.20495,670.84562 C 759.27327,663.3674 763.54654,658.02581 767.81981,654.82086 z"
           id="path8583"
           sodipodi:nodetypes="cscccscc" />
        <path
           style="fill:#000000;fill-opacity:1;fill-rule:evenodd;stroke:#000000;stroke-width:1.06831789;stroke-miterlimit:4;stroke-dasharray:none;stroke-opacity:1"
           d="M 765.68318,662.29908 L 766.7515,661.23076 C 767.81981,663.3674 768.42521,663.80349 769.95645,665.50403 C 768.27278,663.57411 766.30296,662.82382 765.68318,662.29908 z"
           id="path8585"
           sodipodi:nodetypes="cccc" />
        <path
           style="fill:#000000;fill-opacity:1;fill-rule:evenodd;stroke:#000000;stroke-width:1.06831789;stroke-miterlimit:4;stroke-dasharray:none;stroke-opacity:1"
           d="M 755,648.37756 C 751.78119,648.37756 749.1576,650.99729 749.15764,654.25331 C 749.15764,657.50935 751.78119,660.16245 755,660.16245 C 756.00587,660.16245 756.06832,660.16245 757.77095,659.46136 C 761.40991,660.16245 759.27327,664.43572 758.62129,668.70899 C 760.63534,660.16245 764.61486,656.95749 767.81981,654.82086 C 767.27746,652.68422 761.10944,653.58561 760.34159,651.6159 C 759.27327,649.47927 757.73269,648.37754 755,648.37756 z"
           id="path8587"
           sodipodi:nodetypes="cssccccc" />
        <path
           transform="matrix(0.9993354,0,0,1.0646308,19.489118,22.415404)"
           d="M 740,593.5 A 4,3.5 0 1 1 732,593.5 A 4,3.5 0 1 1 740,593.5 z"
           sodipodi:ry="3.5"
           sodipodi:rx="4"
           sodipodi:cy="593.5"
           sodipodi:cx="736"
           id="path8591"
           style="fill:#ffffff;fill-opacity:1;fill-rule:evenodd;stroke:#ffffff;stroke-width:0.68157101;stroke-miterlimit:4;stroke-dasharray:none;stroke-opacity:1"
           sodipodi:type="arc" />
        <path
           sodipodi:type="arc"
           style="fill:#000000;fill-opacity:1;fill-rule:evenodd;stroke:#000000;stroke-width:0.68157101;stroke-miterlimit:4;stroke-dasharray:none;stroke-opacity:1"
           id="path8593"
           sodipodi:cx="736"
           sodipodi:cy="593.5"
           sodipodi:rx="4"
           sodipodi:ry="3.5"
           d="M 740,593.5 A 4,3.5 0 1 1 732,593.5 A 4,3.5 0 1 1 740,593.5 z"
           transform="matrix(0.3627175,0,0,0.4583315,488.03989,382.26867)" />
      </g>
      <g
         transform="matrix(-1,0,0,1,1432.4963,0)"
         id="g9437">
        <path
           sodipodi:nodetypes="cscccccsssscc"
           id="path9439"
           d="M 763,727 C 768.34159,718.45346 777.67064,707.40723 763,691 C 752.29874,679.03202 724,667 741,659 L 739.93169,656.86336 L 741,659 C 744.20496,664.34159 749.65841,675.1189 758.20495,670.84562 L 771.02477,659.09413 C 773,653 759.35335,644.36143 753,643 C 739,640 719.39626,645.4738 720,666 C 720.3106,676.56007 726,682 731,689 C 741.90027,704.26038 733.95695,716.90576 731,721 L 718,739 L 763,727 z"
           style="fill:#ffffff;fill-opacity:1;fill-rule:evenodd;stroke:#000000;stroke-width:1.06831789;stroke-miterlimit:4;stroke-dasharray:none;stroke-opacity:1" />
        <path
           sodipodi:nodetypes="cscccscc"
           id="path9441"
           d="M 767.81981,654.82086 C 770.34294,660.89964 773.89297,666.35256 781.70795,670.84562 C 787.89357,674.40193 787.04954,679.39217 784.9129,682.59712 C 777.75494,679.4624 769.95645,674.09348 763.54654,666.57235 C 767.81981,672.98226 775.68523,678.51264 782.77626,683.66544 C 779.36702,687.1047 775.7847,686.07769 772.09309,682.59712 C 766.54427,677.36554 762.94983,674.20139 758.20495,670.84562 C 759.27327,663.3674 763.54654,658.02581 767.81981,654.82086 z"
           style="fill:#fcef3c;fill-opacity:1;fill-rule:evenodd;stroke:#000000;stroke-width:1.06831789;stroke-miterlimit:4;stroke-dasharray:none;stroke-opacity:1" />
        <path
           sodipodi:nodetypes="cccc"
           id="path9443"
           d="M 765.68318,662.29908 L 766.7515,661.23076 C 767.81981,663.3674 768.42521,663.80349 769.95645,665.50403 C 768.27278,663.57411 766.30296,662.82382 765.68318,662.29908 z"
           style="fill:#000000;fill-opacity:1;fill-rule:evenodd;stroke:#000000;stroke-width:1.06831789;stroke-miterlimit:4;stroke-dasharray:none;stroke-opacity:1" />
        <path
           sodipodi:nodetypes="cssccccc"
           id="path9445"
           d="M 755,648.37756 C 751.78119,648.37756 749.1576,650.99729 749.15764,654.25331 C 749.15764,657.50935 751.78119,660.16245 755,660.16245 C 756.00587,660.16245 756.06832,660.16245 757.77095,659.46136 C 761.40991,660.16245 759.27327,664.43572 758.62129,668.70899 C 760.63534,660.16245 764.61486,656.95749 767.81981,654.82086 C 767.27746,652.68422 761.10944,653.58561 760.34159,651.6159 C 759.27327,649.47927 757.73269,648.37754 755,648.37756 z"
           style="fill:#000000;fill-opacity:1;fill-rule:evenodd;stroke:#000000;stroke-width:1.06831789;stroke-miterlimit:4;stroke-dasharray:none;stroke-opacity:1" />
        <path
           sodipodi:type="arc"
           style="fill:#ffffff;fill-opacity:1;fill-rule:evenodd;stroke:#ffffff;stroke-width:0.68157101;stroke-miterlimit:4;stroke-dasharray:none;stroke-opacity:1"
           id="path9447"
           sodipodi:cx="736"
           sodipodi:cy="593.5"
           sodipodi:rx="4"
           sodipodi:ry="3.5"
           d="M 740,593.5 A 4,3.5 0 1 1 732,593.5 A 4,3.5 0 1 1 740,593.5 z"
           transform="matrix(0.9993354,0,0,1.0646308,19.489118,22.415404)" />
        <path
           transform="matrix(0.3627175,0,0,0.4583315,488.03989,382.26867)"
           d="M 740,593.5 A 4,3.5 0 1 1 732,593.5 A 4,3.5 0 1 1 740,593.5 z"
           sodipodi:ry="3.5"
           sodipodi:rx="4"
           sodipodi:cy="593.5"
           sodipodi:cx="736"
           id="path9449"
           style="fill:#000000;fill-opacity:1;fill-rule:evenodd;stroke:#000000;stroke-width:0.68157101;stroke-miterlimit:4;stroke-dasharray:none;stroke-opacity:1"
           sodipodi:type="arc" />
      </g>
    </g>
    <path
       sodipodi:type="star"
       style="fill:#e20909;fill-opacity:1;fill-rule:evenodd;stroke:#000000;stroke-width:3;stroke-miterlimit:4;stroke-dasharray:none;stroke-opacity:1"
       id="path9467"
       sodipodi:sides="6"
       sodipodi:cx="300"
       sodipodi:cy="83"
       sodipodi:r1="115.1043"
       sodipodi:r2="61.243771"
       sodipodi:arg1="0.51806853"
       sodipodi:arg2="1.0416673"
       inkscape:flatsided="false"
       inkscape:rounded="0"
       inkscape:randomized="0"
       d="M 400,140 L 330.91473,135.8685 L 300.63655,198.10254 L 269.6719,136.2072 L 200.63655,141.10254 L 238.75717,83.338692 L 200,25.999999 L 269.08527,30.131496 L 299.36345,-32.102541 L 330.3281,29.792804 L 399.36345,24.897459 L 361.24283,82.661308 L 400,140 z"
       transform="translate(1.5,44.792804)" />
  </g>
  <g
     inkscape:groupmode="layer"
     id="layer3"
     inkscape:label="Reflet final"
     style="display:inline"
     sodipodi:insensitive="true">
    <path
       style="fill:url(#radialGradient3236);fill-opacity:1"
       d="M 1.5,1.5 L 1.5,460.3679 C 1.5,626.67854 135.81454,761.5 301.49993,761.5 C 467.1854,761.5 601.5,626.67854 601.5,460.3679 L 601.5,1.5 L 1.5,1.5 z "
       id="path2346" />
  </g>
  <g
     inkscape:groupmode="layer"
     id="layer4"
     inkscape:label="Contour final"
     style="display:inline"
     sodipodi:insensitive="true">
    <path
       style="fill:none;fill-opacity:1;stroke:#000000;stroke-width:3;stroke-miterlimit:4;stroke-dasharray:none;stroke-opacity:1"
       d="M 1.5,1.5 L 1.5,460.36794 C 1.5,626.67854 135.81454,761.5 301.49993,761.5 C 467.1854,761.5 601.5,626.67854 601.5,460.36794 L 601.5,1.5 L 1.5,1.5 z "
       id="path3239" />
  </g>
</svg>

<?xml version="1.0" encoding="UTF-8"?>
<svg version="1.0" viewBox="0 0 603 763" xmlns="http://www.w3.org/2000/svg" xmlns:cc="http://creativecommons.org/ns#" xmlns:dc="http://purl.org/dc/elements/1.1/" xmlns:rdf="http://www.w3.org/1999/02/22-rdf-syntax-ns#" xmlns:xlink="http://www.w3.org/1999/xlink">
<metadata>
<rdf:RDF>
<cc:Work rdf:about="">
<dc:format>image/svg+xml</dc:format>
<dc:type rdf:resource="http://purl.org/dc/dcmitype/StillImage"/>
<dc:date>04-AUG-2009</dc:date>
<dc:creator>
<cc:Agent>
<dc:title>Juan G (aliman5040)</dc:title>
</cc:Agent>
</dc:creator>
<cc:license rdf:resource="http://creativecommons.org/licenses/GPL/2.0/"/>
<dc:coverage/>
<dc:description/>
<dc:subject>
<rdf:Bag/>
</dc:subject>
<dc:language/>
<dc:title>Wappen Gemeinde Niederhünigen</dc:title>
</cc:Work>
<cc:License rdf:about="http://creativecommons.org/licenses/GPL/2.0/">
<cc:permits rdf:resource="http://web.resource.org/cc/Reproduction"/>
<cc:permits rdf:resource="http://web.resource.org/cc/Distribution"/>
<cc:requires rdf:resource="http://web.resource.org/cc/Notice"/>
<cc:permits rdf:resource="http://web.resource.org/cc/DerivativeWorks"/>
<cc:requires rdf:resource="http://web.resource.org/cc/ShareAlike"/>
<cc:requires rdf:resource="http://web.resource.org/cc/SourceCode"/>
</cc:License>
</rdf:RDF>
</metadata>
<defs>
<radialGradient id="a" cx="858.04" cy="579.93" r="300" gradientTransform="matrix(1.215 1.5316e-24 1.4647e-23 1.2667 -839.19 -490.49)" gradientUnits="userSpaceOnUse">
<stop stop-color="#fff" stop-opacity=".31373" offset="0"/>
<stop stop-color="#fff" stop-opacity=".25098" offset=".19"/>
<stop stop-color="#6b6b6b" stop-opacity=".12549" offset=".6"/>
<stop stop-opacity=".12549" offset="1"/>
</radialGradient>
</defs>
<g>
<path d="m1.5 1.5v458.87c0 166.31 134.31 301.13 300 301.13 165.69 0 300-134.82 300-301.13v-458.87h-600z" fill="#e20909"/>
<rect x="1.4969" y="1.4969" width="600.01" height="252.01" fill="#fff" fill-rule="evenodd" stroke="#000" stroke-width="2.9939"/>
<g transform="matrix(4.1677 0 0 4.1677 -2683.6 -2389.2)" fill-rule="evenodd">
<path d="m763 727c5.3416-8.5465 14.671-19.593 0-36-10.701-11.968-39-24-22-32l-1.0683-2.1366 1.0683 2.1366c3.205 5.3416 8.6584 16.119 17.205 11.846l12.82-11.751c1.9752-6.0941-11.671-14.733-18.025-16.094-14-3-33.604 2.4738-33 23 0.3106 10.56 6 16 11 23 10.9 15.26 2.957 27.906 0 32l-13 18 45-12z" fill="#fff" stroke="#000" stroke-width="1.0683"/>
<path d="m767.82 654.82c2.5231 6.0788 6.0732 11.532 13.888 16.025 6.1856 3.5563 5.3416 8.5466 3.205 11.752-7.158-3.1347-14.956-8.5036-21.366-16.025 4.2733 6.4099 12.139 11.94 19.23 17.093-3.4092 3.4393-6.9916 2.4122-10.683-1.0683-5.5488-5.2316-9.1433-8.3957-13.888-11.752 1.0683-7.4782 5.3416-12.82 9.6149-16.025z" fill="#fcef3c" stroke="#000" stroke-width="1.0683"/>
<path d="m765.68 662.3 1.0683-1.0683c1.0683 2.1366 1.6737 2.5727 3.205 4.2733-1.6837-1.9299-3.6535-2.6802-4.2733-3.205z" stroke="#000" stroke-width="1.0683"/>
<path d="m755 648.38c-3.2188 0-5.8424 2.6197-5.8424 5.8758 0 3.256 2.6236 5.9091 5.8424 5.9091 1.0059 0 1.0683 0 2.771-0.70109 3.639 0.70109 1.5023 4.9744 0.85034 9.2476 2.014-8.5465 5.9936-11.752 9.1985-13.888-0.54235-2.1366-6.7104-1.2352-7.4782-3.205-1.0683-2.1366-2.6089-3.2384-5.3416-3.2383z" stroke="#000" stroke-width="1.0683"/>
<path transform="matrix(.99934 0 0 1.0646 19.489 22.415)" d="m740 593.5a4 3.5 0 1 1-8 0 4 3.5 0 1 1 8 0z" fill="#fff" stroke="#fff" stroke-width=".68157"/>
<path transform="matrix(.36272 0 0 .45833 488.04 382.27)" d="m740 593.5a4 3.5 0 1 1-8 0 4 3.5 0 1 1 8 0z" stroke="#000" stroke-width=".68157"/>
<g transform="matrix(-1 0 0 1 1432.5 0)">
<path d="m763 727c5.3416-8.5465 14.671-19.593 0-36-10.701-11.968-39-24-22-32l-1.0683-2.1366 1.0683 2.1366c3.205 5.3416 8.6584 16.119 17.205 11.846l12.82-11.751c1.9752-6.0941-11.671-14.733-18.025-16.094-14-3-33.604 2.4738-33 23 0.3106 10.56 6 16 11 23 10.9 15.26 2.957 27.906 0 32l-13 18 45-12z" fill="#fff" stroke="#000" stroke-width="1.0683"/>
<path d="m767.82 654.82c2.5231 6.0788 6.0732 11.532 13.888 16.025 6.1856 3.5563 5.3416 8.5466 3.205 11.752-7.158-3.1347-14.956-8.5036-21.366-16.025 4.2733 6.4099 12.139 11.94 19.23 17.093-3.4092 3.4393-6.9916 2.4122-10.683-1.0683-5.5488-5.2316-9.1433-8.3957-13.888-11.752 1.0683-7.4782 5.3416-12.82 9.6149-16.025z" fill="#fcef3c" stroke="#000" stroke-width="1.0683"/>
<path d="m765.68 662.3 1.0683-1.0683c1.0683 2.1366 1.6737 2.5727 3.205 4.2733-1.6837-1.9299-3.6535-2.6802-4.2733-3.205z" stroke="#000" stroke-width="1.0683"/>
<path d="m755 648.38c-3.2188 0-5.8424 2.6197-5.8424 5.8758 0 3.256 2.6236 5.9091 5.8424 5.9091 1.0059 0 1.0683 0 2.771-0.70109 3.639 0.70109 1.5023 4.9744 0.85034 9.2476 2.014-8.5465 5.9936-11.752 9.1985-13.888-0.54235-2.1366-6.7104-1.2352-7.4782-3.205-1.0683-2.1366-2.6089-3.2384-5.3416-3.2383z" stroke="#000" stroke-width="1.0683"/>
<path transform="matrix(.99934 0 0 1.0646 19.489 22.415)" d="m740 593.5a4 3.5 0 1 1-8 0 4 3.5 0 1 1 8 0z" fill="#fff" stroke="#fff" stroke-width=".68157"/>
<path transform="matrix(.36272 0 0 .45833 488.04 382.27)" d="m740 593.5a4 3.5 0 1 1-8 0 4 3.5 0 1 1 8 0z" stroke="#000" stroke-width=".68157"/>
</g>
</g>
<path transform="translate(1.5 44.793)" d="m400 140-69.085-4.1315-30.278 62.234-30.965-61.895-69.035 4.8953 38.121-57.764-38.757-57.339 69.085 4.1315 30.278-62.234 30.965 61.895 69.035-4.8953-38.121 57.764 38.757 57.339z" fill="#e20909" fill-rule="evenodd" stroke="#000" stroke-width="3"/>
<path d="m1.5 1.5v458.87c0 166.31 134.31 301.13 300 301.13 165.69 0 300-134.82 300-301.13v-458.87h-600z" fill="url(#a)"/>
<path d="m1.5 1.5v458.87c0 166.31 134.31 301.13 300 301.13 165.69 0 300-134.82 300-301.13v-458.87h-600z" fill="none" stroke="#000" stroke-width="3"/>
</g>
</svg>
